X:5
T:GB/7c/5A, A Fair Maid Walking Down in the Garden
%%VWML:GB-7c-5A-0
F:http://www.vwml.org/record/GB/7c/5A
T:Version 3 of 3
C:Mr. Lockley (c. 80), High Ercall, Salop., III. 08
C:Transcribed by Simon Furey and Lewis Jones
L:1/4
M:3/2
I:linebreak $
K:Bb
B | d c B2 A G | B G F B, z B/A/ | G F E D C B, | F F F3 F |$ B c/d/ e2 d c | d/c/ B A/G/ F- F E | D F e c d B | F/A/ c B3 |]

